Costumes/Human_09-forearm_R.svg

<?xml version="1.0" encoding="UTF-8"?>
<svg id="Layer_2" data-name="Layer 2" xmlns="http://www.w3.org/2000/svg" viewBox="0 0 42.63 96.48">
  <defs>
    <style>
      .cls-1 {
        fill: #b28a63;
      }

      .cls-2 {
        fill: #937354;
      }
    </style>
  </defs>
  <g id="Layer_1-2" data-name="Layer 1">
    <path class="cls-1" d="M28.21,83.59c1.96,1.17,1.41,3.06-.72,3.6-.51,3.58-1.93,9.21-6.81,9.29-4.82.08-5.47-3.38-6.56-7.06-.15-.49-1-.72-1.01-.79-2.13-.44-1.09-2.67.72-2.88l-.92-1.6c-1.92-15.64-3.72-31.3-5.4-46.97-.29-3.83-.74-20.34,2.42-23.28s18.75-2.68,21.99-.13c4.64,3.66,3.21,22.67,2.75,27.33-1.4,14.22-3.63,28.56-6.45,42.49Z"/>
    <path d="M27.49,87.19c.17-1.2.67-2.61.72-3.6,3.35-17.74,6.63-36.34,7.36-54.57.42-10.56-1.18-21.7-14.09-22.27-15.8-.7-15.1,17.87-14.59,29.19.75,16.61,3.41,33.84,6.93,49.81,0,1.06-.76,2.73-.72,2.88-1.92,1.73-4.77-2.17-5.44-3.55-1.38-2.84-2.4-8.81-2.99-12.11C2.08,58.57-2.7,26.09,1.96,13.11,9.42-7.66,41.55-3.08,42.59,22.1c.4,9.74-2.9,29.75-4.4,40.18-.69,4.8-1.38,10.15-2.42,14.84-.89,4.01-2.49,12.95-8.28,10.06Z"/>
    <path class="cls-2" d="M28.21,83.59c1.02-18.74,6.13-38.55,5.61-57.19-.06-2.18-1.07-10.33-2.76-11.49-2.87-1.96-18.37-2.58-20.47.34-.69.95-1.77,8.72-1.84,10.39-.76,20.24,4.94,40.06,5.06,60.11-1.22-.55-1.87-1.17-2.13-2.54C8.66,67.79,2.11,28.21,7.13,14.68,12.46.31,34.54,2.95,36.78,19.27c1.65,12.03-3.51,44.2-6.01,57.17-.4,2.06-.81,5.91-2.56,7.16Z"/>
  </g>
</svg>

<?xml version="1.0" encoding="UTF-8" standalone="no"?>
<svg
   id="Layer_2"
   data-name="Layer 2"
   viewBox="0 0 42.622798 96.481419"
   version="1.1"
   sodipodi:docname="Human_09-forearm_R.svg"
   width="42.622799"
   height="96.481422"
   xmlns:inkscape="http://www.inkscape.org/namespaces/inkscape"
   xmlns:sodipodi="http://sodipodi.sourceforge.net/DTD/sodipodi-0.dtd"
   xmlns="http://www.w3.org/2000/svg"
   xmlns:svg="http://www.w3.org/2000/svg">
  <sodipodi:namedview
     id="namedview14"
     pagecolor="#ffffff"
     bordercolor="#000000"
     borderopacity="0.25"
     inkscape:showpageshadow="2"
     inkscape:pageopacity="0.0"
     inkscape:pagecheckerboard="0"
     inkscape:deskcolor="#d1d1d1" />
  <defs
     id="defs4">
    <style
       id="style2">
      .cls-1 {
        fill: #b28a63;
      }

      .cls-2 {
        fill: #937354;
      }
    </style>
  </defs>
  <g
     id="Layer_1-2"
     data-name="Layer 1"
     transform="translate(-5.5967227e-4,6.3643764e-5)">
    <path
       class="cls-1"
       d="m 28.21,83.59 c 1.96,1.17 1.41,3.06 -0.72,3.6 -0.51,3.58 -1.93,9.21 -6.81,9.29 -4.82,0.08 -5.47,-3.38 -6.56,-7.06 -0.15,-0.49 -1,-0.72 -1.01,-0.79 -2.13,-0.44 -1.09,-2.67 0.72,-2.88 l -0.92,-1.6 C 10.99,68.51 9.19,52.85 7.51,37.18 7.22,33.35 6.77,16.84 9.93,13.9 c 3.16,-2.94 18.75,-2.68 21.99,-0.13 4.64,3.66 3.21,22.67 2.75,27.33 -1.4,14.22 -3.63,28.56 -6.45,42.49 z"
       id="path6" />
    <path
       d="m 27.49,87.19 c 0.17,-1.2 0.67,-2.61 0.72,-3.6 C 31.56,65.85 34.84,47.25 35.57,29.02 35.99,18.46 34.39,7.32 21.48,6.75 5.68,6.05 6.38,24.62 6.89,35.94 c 0.75,16.61 3.41,33.84 6.93,49.81 0,1.06 -0.76,2.73 -0.72,2.88 C 11.18,90.36 8.33,86.46 7.66,85.08 6.28,82.24 5.26,76.27 4.67,72.97 2.08,58.57 -2.7,26.09 1.96,13.11 9.42,-7.66 41.55,-3.08 42.59,22.1 c 0.4,9.74 -2.9,29.75 -4.4,40.18 -0.69,4.8 -1.38,10.15 -2.42,14.84 -0.89,4.01 -2.49,12.95 -8.28,10.06 z"
       id="path8" />
    <path
       class="cls-2"
       d="M 28.21,83.59 C 29.23,64.85 34.34,45.04 33.82,26.4 33.76,24.22 32.75,16.07 31.06,14.91 28.19,12.95 12.69,12.33 10.59,15.25 9.9,16.2 8.82,23.97 8.75,25.64 7.99,45.88 13.69,65.7 13.81,85.75 12.59,85.2 11.94,84.58 11.68,83.21 8.66,67.79 2.11,28.21 7.13,14.68 12.46,0.31 34.54,2.95 36.78,19.27 c 1.65,12.03 -3.51,44.2 -6.01,57.17 -0.4,2.06 -0.81,5.91 -2.56,7.16 z"
       id="path10" />
  </g>
</svg>
